packages/bezier-icons/icons/all.svg

<svg width="24" height="24" viewBox="0 0 24 24" fill="none" xmlns="http://www.w3.org/2000/svg">
<path fill-rule="evenodd" clip-rule="evenodd" d="M19.5002 17.0001C19.7762 17.0001 20.0002 16.7761 20.0002 16.5001V15.5001C20.0002 15.2241 19.7762 15.0001 19.5002 15.0001H18.0002V7.50012C18.0002 7.22412 17.7762 7.00012 17.5002 7.00012H16.5002C16.2242 7.00012 16.0002 7.22412 16.0002 7.50012V16.5001C16.0002 16.7761 16.2242 17.0001 16.5002 17.0001H19.5002ZM14.5002 17.0001C14.7762 17.0001 15.0002 16.7761 15.0002 16.5001V15.5001C15.0002 15.2241 14.7762 15.0001 14.5002 15.0001H13.0002V7.50012C13.0002 7.22412 12.7762 7.00012 12.5002 7.00012H11.5002C11.2242 7.00012 11.0002 7.22412 11.0002 7.50012V16.5001C11.0002 16.7761 11.2242 17.0001 11.5002 17.0001H14.5002ZM9.50021 17.0001C9.77621 17.0001 10.0002 16.7761 10.0002 16.5001V9.00012C10.0002 7.89612 9.10421 7.00012 8.00021 7.00012H6.00021C4.89621 7.00012 4.00021 7.89612 4.00021 9.00012V16.5001C4.00021 16.7761 4.22421 17.0001 4.50021 17.0001H5.50021C5.77621 17.0001 6.00021 16.7761 6.00021 16.5001V14.0001H8.00021V16.5001C8.00021 16.7761 8.22421 17.0001 8.50021 17.0001H9.50021ZM4.00021 5.00012H20.0002C21.1042 5.00012 22.0002 5.89612 22.0002 7.00012V17.0001C22.0002 18.1041 21.1042 19.0001 20.0002 19.0001H4.00021C2.89621 19.0001 2.00021 18.1041 2.00021 17.0001V7.00012C2.00021 5.89612 2.89621 5.00012 4.00021 5.00012ZM6.50021 9.00012H7.50021C7.77621 9.00012 8.00021 9.22412 8.00021 9.50012V12.0001H6.00021V9.50012C6.00021 9.22412 6.22421 9.00012 6.50021 9.00012Z" fill="#313234"/>
</svg>

<svg xmlns="http://www.w3.org/2000/svg" width="24" height="24" fill="none" viewBox="0 0 24 24"><path fill="#313234" fill-rule="evenodd" d="M19.5 17a.5.5 0 0 0 .5-.5v-1a.5.5 0 0 0-.5-.5H18V7.5a.5.5 0 0 0-.5-.5h-1a.5.5 0 0 0-.5.5v9a.5.5 0 0 0 .5.5zm-5 0a.5.5 0 0 0 .5-.5v-1a.5.5 0 0 0-.5-.5H13V7.5a.5.5 0 0 0-.5-.5h-1a.5.5 0 0 0-.5.5v9a.5.5 0 0 0 .5.5zm-5 0a.5.5 0 0 0 .5-.5V9a2 2 0 0 0-2-2H6a2 2 0 0 0-2 2v7.5a.5.5 0 0 0 .5.5h1a.5.5 0 0 0 .5-.5V14h2v2.5a.5.5 0 0 0 .5.5zM4 5h16a2 2 0 0 1 2 2v10a2 2 0 0 1-2 2H4a2 2 0 0 1-2-2V7a2 2 0 0 1 2-2m2.5 4h1a.5.5 0 0 1 .5.5V12H6V9.5a.5.5 0 0 1 .5-.5" clip-rule="evenodd"/></svg>
